assets/images/icons/src/medkit.svg

<?xml version="1.0" encoding="utf-8"?>
<!-- Generated by IcoMoon.io -->
<!DOCTYPE svg PUBLIC "-//W3C//DTD SVG 1.1//EN" "http://www.w3.org/Graphics/SVG/1.1/DTD/svg11.dtd">
<svg version="1.1" xmlns="http://www.w3.org/2000/svg" xmlns:xlink="http://www.w3.org/1999/xlink" width="14" height="14" viewBox="0 0 14 14">
<path fill="#444444" d="M10 8.75v-1.5q0-0.109-0.070-0.18t-0.18-0.070h-1.75v-1.75q0-0.109-0.070-0.18t-0.18-0.070h-1.5q-0.109 0-0.18 0.070t-0.070 0.18v1.75h-1.75q-0.109 0-0.18 0.070t-0.070 0.18v1.5q0 0.109 0.070 0.18t0.18 0.070h1.75v1.75q0 0.109 0.070 0.18t0.18 0.070h1.5q0.109 0 0.18-0.070t0.070-0.18v-1.75h1.75q0.109 0 0.18-0.070t0.070-0.18zM5 3h4v-1h-4v1zM2 3v10h-0.25q-0.719 0-1.234-0.516t-0.516-1.234v-6.5q0-0.719 0.516-1.234t1.234-0.516h0.25zM11.25 3v10h-8.5v-10h1.25v-1.25q0-0.312 0.219-0.531t0.531-0.219h4.5q0.312 0 0.531 0.219t0.219 0.531v1.25h1.25zM14 4.75v6.5q0 0.719-0.516 1.234t-1.234 0.516h-0.25v-10h0.25q0.719 0 1.234 0.516t0.516 1.234z"></path>
</svg>

<svg xmlns="http://www.w3.org/2000/svg" width="14" height="14" viewBox="0 0 14 14"><path fill="#444" d="M10 8.75v-1.5q0-.109-.07-.18T9.75 7H8V5.25q0-.109-.07-.18T7.75 5h-1.5q-.109 0-.18.07T6 5.25V7H4.25q-.109 0-.18.07T4 7.25v1.5q0 .109.07.18t.18.07H6v1.75q0 .109.07.18t.18.07h1.5q.109 0 .18-.07t.07-.18V9h1.75q.109 0 .18-.07t.07-.18zM5 3h4V2H5v1zM2 3v10h-.25q-.719 0-1.234-.516T0 11.25v-6.5q0-.719.516-1.234T1.75 3H2zm9.25 0v10h-8.5V3H4V1.75q0-.312.219-.531T4.75 1h4.5q.312 0 .531.219T10 1.75V3h1.25zM14 4.75v6.5q0 .719-.516 1.234T12.25 13H12V3h.25q.719 0 1.234.516T14 4.75z"/></svg>
